X: 1
T: The Glenrothes
T: 4x32J 4C (Anne Taylor, 2nd Graded)
P: The Glenrothes
C: Drummond Cook
R: jig
N: Suggested tune for The Glenrothes
B: RSCDS "A Second Book of Graded Scottish Country Dances" (Graded 2) p.43 #21
Z: 2011 John Chambers <jc:trillian.mit.edu>
M: 6/8
L: 1/8
K: A
E |\
"A"ABA "F#m"c2e | "Bm"dcd "E7"B2E | "A"ABA "E/A7"c2e | "D"fga "C#m"e2e |
"D"fga "F#7"edc | "D#/B7"BcB "E7"B2e | "A"A2e "C#/A"edc | "E7"B3 "A"A2 :|
|: "A7"A |\
"D"f2f "D#dim"fga | "E/A"e2e "F#7"efe | "Bm"d2d "G#/E"def | "A"edc "E"B2E |
"F#m"AGA "G#/E"BAB | "A7"cde "D"a2f | "C#/A"eaf "F#m"ecA | "E7"B3 "A"A2 :|